X:75
T:Trip to Durrow
T:Trip to Duro
M:4/4
L:1/8
R:reel
D:Highland Sun: Celtic Crossover
K:D
D2DF ADFA|dfed ~B3c|dBBA dBBA|FADE FDEF|
D2DF ADFA|dfed ~B3c|dBBA FAdB|AFEG FD~D2:|
|:dcde fefg|afdf gfed|cdef gebe|gebe gfef|
d2de fefg|afdf gfed|cdef gbag|fdec d2de|
fdec d2de|fded ~B3c|dBBA dBBA|FADE FDEF|
D2DF ADFA|dfed ~B3c|dBBA FAdB|AFEG FD~D2:|
